static/img/kroki/e332ac95cea93f63f0d3c5694fdfc2f4.svg

<?xml version="1.0" encoding="us-ascii" standalone="no"?><svg xmlns="http://www.w3.org/2000/svg" xmlns:xlink="http://www.w3.org/1999/xlink" contentStyleType="text/css" height="890px" preserveAspectRatio="none" style="width:536px;height:890px;" version="1.1" viewBox="0 0 536 890" width="536px" zoomAndPan="magnify"><defs/><g><!--class database--><g id="elem_database"><rect codeLine="22" fill="#3D176E" height="284.4609" id="database" rx="2.5" ry="2.5" style="stroke:#000D19;stroke-width:0.5;" width="264" x="7" y="438.76"/><ellipse cx="92.25" cy="458.6545" fill="#ADD1B2" rx="11" ry="11" style="stroke:#181818;stroke-width:1.0;"/><path d="M95.2188,464.2952 Q94.6406,464.592 94,464.7327 Q93.3594,464.8889 92.6563,464.8889 Q90.1563,464.8889 88.8281,463.2483 Q87.5156,461.592 87.5156,458.467 Q87.5156,455.342 88.8281,453.6858 Q90.1563,452.0295 92.6563,452.0295 Q93.3594,452.0295 94,452.1858 Q94.6563,452.342 95.2188,452.6389 L95.2188,455.3577 Q94.5938,454.7795 94,454.5139 Q93.4063,454.2327 92.7813,454.2327 Q91.4375,454.2327 90.75,455.3108 Q90.0625,456.3733 90.0625,458.467 Q90.0625,460.5608 90.75,461.6389 Q91.4375,462.7014 92.7813,462.7014 Q93.4063,462.7014 94,462.4358 Q94.5938,462.1545 95.2188,461.5764 L95.2188,464.2952 Z " fill="#000000"/><text fill="#D9B8FF" font-family="Helvetica" font-size="17" lengthAdjust="spacing" textLength="75" x="117.75" y="464.5398">database</text><line style="stroke:#000D19;stroke-width:0.5;" x1="8" x2="270" y1="478.5491" y2="478.5491"/><text fill="#D9B8FF" font-family="sans-serif" font-size="14" font-weight="bold" lengthAdjust="spacing" textLength="97" x="18" y="500.5442">db_endpoint</text><text fill="#D9B8FF" font-family="sans-serif" font-size="14" lengthAdjust="spacing" textLength="48" x="115" y="500.5442">: string</text><text fill="#D9B8FF" font-family="sans-serif" font-size="14" font-weight="bold" lengthAdjust="spacing" textLength="177" x="18" y="526.8411">db_publicly_accessible</text><text fill="#D9B8FF" font-family="sans-serif" font-size="14" lengthAdjust="spacing" textLength="65" x="195" y="526.8411">: boolean</text><text fill="#D9B8FF" font-family="sans-serif" font-size="14" font-weight="bold" lengthAdjust="spacing" textLength="76" x="18" y="553.1379">db_status</text><text fill="#D9B8FF" font-family="sans-serif" font-size="14" lengthAdjust="spacing" textLength="48" x="94" y="553.1379">: string</text><text fill="#D9B8FF" font-family="sans-serif" font-size="14" font-weight="bold" lengthAdjust="spacing" textLength="62" x="18" y="579.4348">db_type</text><text fill="#D9B8FF" font-family="sans-serif" font-size="14" lengthAdjust="spacing" textLength="48" x="80" y="579.4348">: string</text><text fill="#D9B8FF" font-family="sans-serif" font-size="14" font-weight="bold" lengthAdjust="spacing" textLength="86" x="18" y="605.7317">db_version</text><text fill="#D9B8FF" font-family="sans-serif" font-size="14" lengthAdjust="spacing" textLength="48" x="104" y="605.7317">: string</text><text fill="#D9B8FF" font-family="sans-serif" font-size="14" font-weight="bold" lengthAdjust="spacing" textLength="109" x="18" y="632.0286">instance_type</text><text fill="#D9B8FF" font-family="sans-serif" font-size="14" lengthAdjust="spacing" textLength="48" x="127" y="632.0286">: string</text><text fill="#D9B8FF" font-family="sans-serif" font-size="14" font-weight="bold" lengthAdjust="spacing" textLength="145" x="18" y="658.3254">volume_encrypted</text><text fill="#D9B8FF" font-family="sans-serif" font-size="14" lengthAdjust="spacing" textLength="65" x="163" y="658.3254">: boolean</text><text fill="#D9B8FF" font-family="sans-serif" font-size="14" font-weight="bold" lengthAdjust="spacing" textLength="97" x="18" y="684.6223">volume_iops</text><text fill="#D9B8FF" font-family="sans-serif" font-size="14" lengthAdjust="spacing" textLength="44" x="115" y="684.6223">: int64</text><text fill="#D9B8FF" font-family="sans-serif" font-size="14" font-weight="bold" lengthAdjust="spacing" textLength="96" x="18" y="710.9192">volume_size</text><text fill="#D9B8FF" font-family="sans-serif" font-size="14" lengthAdjust="spacing" textLength="44" x="114" y="710.9192">: int64</text></g><!--class digitalocean_database--><g id="elem_digitalocean_database"><rect codeLine="33" fill="#3D176E" height="39.7891" id="digitalocean_database" rx="2.5" ry="2.5" style="stroke:#000D19;stroke-width:0.5;" width="227" x="164.5" y="844.22"/><ellipse cx="179.5" cy="864.1145" fill="#ADD1B2" rx="11" ry="11" style="stroke:#181818;stroke-width:1.0;"/><path d="M182.4688,869.7552 Q181.8906,870.052 181.25,870.1927 Q180.6094,870.3489 179.9063,870.3489 Q177.4063,870.3489 176.0781,868.7083 Q174.7656,867.052 174.7656,863.927 Q174.7656,860.802 176.0781,859.1458 Q177.4063,857.4895 179.9063,857.4895 Q180.6094,857.4895 181.25,857.6458 Q181.9063,857.802 182.4688,858.0989 L182.4688,860.8177 Q181.8438,860.2395 181.25,859.9739 Q180.6563,859.6927 180.0313,859.6927 Q178.6875,859.6927 178,860.7708 Q177.3125,861.8333 177.3125,863.927 Q177.3125,866.0208 178,867.0989 Q178.6875,868.1614 180.0313,868.1614 Q180.6563,868.1614 181.25,867.8958 Q181.8438,867.6145 182.4688,867.0364 L182.4688,869.7552 Z " fill="#000000"/><text fill="#D9B8FF" font-family="Helvetica" font-size="17" lengthAdjust="spacing" textLength="185" x="198.5" y="869.9998">digitalocean_database</text></g><!--class digitalocean_resource--><g id="elem_digitalocean_resource"><rect codeLine="35" fill="#3D176E" height="74.0859" id="digitalocean_resource" rx="2.5" ry="2.5" style="stroke:#000D19;stroke-width:0.5;" width="223" x="306.5" y="543.95"/><ellipse cx="321.5" cy="563.8445" fill="#ADD1B2" rx="11" ry="11" style="stroke:#181818;stroke-width:1.0;"/><path d="M324.4688,569.4852 Q323.8906,569.782 323.25,569.9227 Q322.6094,570.0789 321.9063,570.0789 Q319.4063,570.0789 318.0781,568.4383 Q316.7656,566.782 316.7656,563.657 Q316.7656,560.532 318.0781,558.8758 Q319.4063,557.2195 321.9063,557.2195 Q322.6094,557.2195 323.25,557.3758 Q323.9063,557.532 324.4688,557.8289 L324.4688,560.5477 Q323.8438,559.9695 323.25,559.7039 Q322.6563,559.4227 322.0313,559.4227 Q320.6875,559.4227 320,560.5008 Q319.3125,561.5633 319.3125,563.657 Q319.3125,565.7508 320,566.8289 Q320.6875,567.8914 322.0313,567.8914 Q322.6563,567.8914 323.25,567.6258 Q323.8438,567.3445 324.4688,566.7664 L324.4688,569.4852 Z " fill="#000000"/><text fill="#D9B8FF" font-family="Helvetica" font-size="17" lengthAdjust="spacing" textLength="181" x="340.5" y="569.7298">digitalocean_resource</text><line style="stroke:#000D19;stroke-width:0.5;" x1="307.5" x2="528.5" y1="583.7391" y2="583.7391"/><text fill="#D9B8FF" font-family="sans-serif" font-size="14" font-weight="bold" lengthAdjust="spacing" textLength="27" x="317.5" y="605.7342">urn</text><text fill="#D9B8FF" font-family="sans-serif" font-size="14" lengthAdjust="spacing" textLength="48" x="344.5" y="605.7342">: string</text></g><!--class resource--><g id="elem_resource"><rect codeLine="38" fill="#3D176E" height="310.7578" id="resource" rx="2.5" ry="2.5" style="stroke:#000D19;stroke-width:0.5;" width="227" x="164.5" y="7"/><ellipse cx="233.25" cy="26.8945" fill="#ADD1B2" rx="11" ry="11" style="stroke:#181818;stroke-width:1.0;"/><path d="M236.2188,32.5352 Q235.6406,32.832 235,32.9727 Q234.3594,33.1289 233.6563,33.1289 Q231.1563,33.1289 229.8281,31.4883 Q228.5156,29.832 228.5156,26.707 Q228.5156,23.582 229.8281,21.9258 Q231.1563,20.2695 233.6563,20.2695 Q234.3594,20.2695 235,20.4258 Q235.6563,20.582 236.2188,20.8789 L236.2188,23.5977 Q235.5938,23.0195 235,22.7539 Q234.4063,22.4727 233.7813,22.4727 Q232.4375,22.4727 231.75,23.5508 Q231.0625,24.6133 231.0625,26.707 Q231.0625,28.8008 231.75,29.8789 Q232.4375,30.9414 233.7813,30.9414 Q234.4063,30.9414 235,30.6758 Q235.5938,30.3945 236.2188,29.8164 L236.2188,32.5352 Z " fill="#000000"/><text fill="#D9B8FF" font-family="Helvetica" font-size="17" lengthAdjust="spacing" textLength="71" x="258.75" y="32.7798">resource</text><line style="stroke:#000D19;stroke-width:0.5;" x1="165.5" x2="390.5" y1="46.7891" y2="46.7891"/><text fill="#D9B8FF" font-family="sans-serif" font-size="14" font-weight="bold" lengthAdjust="spacing" textLength="29" x="175.5" y="68.7842">age</text><text fill="#D9B8FF" font-family="sans-serif" font-size="14" lengthAdjust="spacing" textLength="66" x="204.5" y="68.7842">: duration</text><text fill="#D9B8FF" font-family="sans-serif" font-size="14" font-weight="bold" lengthAdjust="spacing" textLength="43" x="175.5" y="95.0811">atime</text><text fill="#D9B8FF" font-family="sans-serif" font-size="14" lengthAdjust="spacing" textLength="70" x="218.5" y="95.0811">: datetime</text><text fill="#D9B8FF" font-family="sans-serif" font-size="14" font-weight="bold" lengthAdjust="spacing" textLength="43" x="175.5" y="121.3779">ctime</text><text fill="#D9B8FF" font-family="sans-serif" font-size="14" lengthAdjust="spacing" textLength="70" x="218.5" y="121.3779">: datetime</text><text fill="#D9B8FF" font-family="sans-serif" font-size="14" font-weight="bold" lengthAdjust="spacing" textLength="14" x="175.5" y="147.6748">id</text><text fill="#D9B8FF" font-family="sans-serif" font-size="14" lengthAdjust="spacing" textLength="48" x="189.5" y="147.6748">: string</text><text fill="#D9B8FF" font-family="sans-serif" font-size="14" font-weight="bold" lengthAdjust="spacing" textLength="33" x="175.5" y="173.9717">kind</text><text fill="#D9B8FF" font-family="sans-serif" font-size="14" lengthAdjust="spacing" textLength="48" x="208.5" y="173.9717">: string</text><text fill="#D9B8FF" font-family="sans-serif" font-size="14" font-weight="bold" lengthAdjust="spacing" textLength="90" x="175.5" y="200.2686">last_access</text><text fill="#D9B8FF" font-family="sans-serif" font-size="14" lengthAdjust="spacing" textLength="66" x="265.5" y="200.2686">: duration</text><text fill="#D9B8FF" font-family="sans-serif" font-size="14" font-weight="bold" lengthAdjust="spacing" textLength="90" x="175.5" y="226.5654">last_update</text><text fill="#D9B8FF" font-family="sans-serif" font-size="14" lengthAdjust="spacing" textLength="66" x="265.5" y="226.5654">: duration</text><text fill="#D9B8FF" font-family="sans-serif" font-size="14" font-weight="bold" lengthAdjust="spacing" textLength="48" x="175.5" y="252.8623">mtime</text><text fill="#D9B8FF" font-family="sans-serif" font-size="14" lengthAdjust="spacing" textLength="70" x="223.5" y="252.8623">: datetime</text><text fill="#D9B8FF" font-family="sans-serif" font-size="14" font-weight="bold" lengthAdjust="spacing" textLength="43" x="175.5" y="279.1592">name</text><text fill="#D9B8FF" font-family="sans-serif" font-size="14" lengthAdjust="spacing" textLength="48" x="218.5" y="279.1592">: string</text><text fill="#D9B8FF" font-family="sans-serif" font-size="14" font-weight="bold" lengthAdjust="spacing" textLength="34" x="175.5" y="305.4561">tags</text><text fill="#D9B8FF" font-family="sans-serif" font-size="14" lengthAdjust="spacing" textLength="171" x="209.5" y="305.4561">: dictionary[string, string]</text></g><!--reverse link resource to database--><g id="link_resource_database"><path codeLine="50" d="M220.6427,335.2846 C207.5127,374.6346 199.17,399.64 186.28,438.3 " fill="none" id="resource-backto-database" style="stroke:#FFAF37;stroke-width:2.0;"/><polygon fill="none" points="226.34,318.21,214.9512,333.3855,226.3342,337.1837,226.34,318.21" style="stroke:#FFAF37;stroke-width:2.0;"/></g><!--reverse link database to digitalocean_database--><g id="link_database_digitalocean_database"><path codeLine="51" d="M216.8865,739.5161 C240.4065,787.0961 255.9,818.41 268.52,843.93 " fill="none" id="database-backto-digitalocean_database" style="stroke:#FFAF37;stroke-width:2.0;"/><polygon fill="none" points="208.91,723.38,211.5078,742.175,222.2652,736.8573,208.91,723.38" style="stroke:#FFAF37;stroke-width:2.0;"/></g><!--reverse link digitalocean_resource to digitalocean_database--><g id="link_digitalocean_resource_digitalocean_database"><path codeLine="52" d="M391.8158,634.5625 C361.7758,694.8825 310.79,797.27 287.64,843.75 " fill="none" id="digitalocean_resource-backto-digitalocean_database" style="stroke:#FFAF37;stroke-width:2.0;"/><polygon fill="none" points="399.84,618.45,386.445,631.8878,397.1866,637.2372,399.84,618.45" style="stroke:#FFAF37;stroke-width:2.0;"/></g><!--reverse link resource to digitalocean_resource--><g id="link_resource_digitalocean_resource"><path codeLine="53" d="M335.7641,335.2723 C363.2241,416.9823 388.9,493.39 405.76,543.57 " fill="none" id="resource-backto-digitalocean_resource" style="stroke:#FFAF37;stroke-width:2.0;"/><polygon fill="none" points="330.03,318.21,330.0766,337.1836,341.4515,333.3609,330.03,318.21" style="stroke:#FFAF37;stroke-width:2.0;"/></g><!--SRC=[XPDFRzim3CNl-HG2UWiM86dNfXbsQGCCwwKOsjs68Q0bsX4YImP5f_2wVVT9iPFwNzDRyDwFv2EjRBL2WNd1bSWnJv3ynE-qBO0W5tT4xcNjZ2DnaQQGNYtxvZTd-KFW4N8Ktz7iaRM4Fl5pg-NEelVYicNTWznbv4ghwlPCO7smq7ABMXlm_ewPT58ojiAeLNARfdsot_JYIYsMDpZ072ca1fdFvsgnwYCVZZgxzuburdzGBDf7UtICWvY34GVgRCf8j48E5ZtwxsRy0KffcudhblPKPoABrD6Vjw3SIwHJCBuznZCIEguAN0-smjMjIfUZyCDxi8oN4meO4l0eNYVJgKesQ5NXjENfz4jeGY58hHTbOhGqrGQa30zC9mOZaZXd46pDU0OkVRyoXkXh-_3dqCvsP6r3lPKuBDWxK-OOeacg2aRL7TousXM7qI7xpUStsOTdyIR_EswjCyrWd0mjDgqJZFg4tfKawnELr4vzv3i8P8U9gYJWi6HKMEUr1epnTz3aYAPLP-_mDRj2cCND1-XDE3Xb4Nlrd7naZeMyUs66hEwePIm3gdxLtgU6-HrMFItvzUziDZkzdCdfVeq-Tjl9-4NFLPo3Zjv_]--></g></svg>

<svg xmlns="http://www.w3.org/2000/svg" width="536" height="890" viewBox="0 0 536 890"><rect width="264" height="284.461" x="7" y="438.76" fill="#3D176E" rx="2.5" ry="2.5" style="stroke:#000d19;stroke-width:.5"/><circle cx="92.25" cy="458.654" r="11" fill="#ADD1B2" style="stroke:#181818;stroke-width:1"/><path d="M95.219 464.295q-.578.297-1.219.438-.64.156-1.344.156-2.5 0-3.828-1.64-1.312-1.657-1.312-4.782t1.312-4.781q1.328-1.656 3.828-1.656.703 0 1.344.156.656.156 1.219.453v2.719q-.625-.579-1.219-.844-.594-.281-1.219-.281-1.344 0-2.031 1.078-.687 1.062-.687 3.156t.687 3.172q.688 1.062 2.031 1.062.625 0 1.219-.265.594-.281 1.219-.86z"/><text x="117.75" y="464.54" fill="#D9B8FF" font-family="Helvetica" font-size="17" textLength="75">database</text><path d="M8 478.549h262" style="stroke:#000d19;stroke-width:.5"/><text x="18" y="500.544" fill="#D9B8FF" font-family="sans-serif" font-size="14" font-weight="bold" textLength="97">db_endpoint</text><text x="115" y="500.544" fill="#D9B8FF" font-family="sans-serif" font-size="14" textLength="48">: string</text><text x="18" y="526.841" fill="#D9B8FF" font-family="sans-serif" font-size="14" font-weight="bold" textLength="177">db_publicly_accessible</text><text x="195" y="526.841" fill="#D9B8FF" font-family="sans-serif" font-size="14" textLength="65">: boolean</text><text x="18" y="553.138" fill="#D9B8FF" font-family="sans-serif" font-size="14" font-weight="bold" textLength="76">db_status</text><text x="94" y="553.138" fill="#D9B8FF" font-family="sans-serif" font-size="14" textLength="48">: string</text><text x="18" y="579.435" fill="#D9B8FF" font-family="sans-serif" font-size="14" font-weight="bold" textLength="62">db_type</text><text x="80" y="579.435" fill="#D9B8FF" font-family="sans-serif" font-size="14" textLength="48">: string</text><text x="18" y="605.732" fill="#D9B8FF" font-family="sans-serif" font-size="14" font-weight="bold" textLength="86">db_version</text><text x="104" y="605.732" fill="#D9B8FF" font-family="sans-serif" font-size="14" textLength="48">: string</text><text x="18" y="632.029" fill="#D9B8FF" font-family="sans-serif" font-size="14" font-weight="bold" textLength="109">instance_type</text><text x="127" y="632.029" fill="#D9B8FF" font-family="sans-serif" font-size="14" textLength="48">: string</text><text x="18" y="658.325" fill="#D9B8FF" font-family="sans-serif" font-size="14" font-weight="bold" textLength="145">volume_encrypted</text><text x="163" y="658.325" fill="#D9B8FF" font-family="sans-serif" font-size="14" textLength="65">: boolean</text><text x="18" y="684.622" fill="#D9B8FF" font-family="sans-serif" font-size="14" font-weight="bold" textLength="97">volume_iops</text><text x="115" y="684.622" fill="#D9B8FF" font-family="sans-serif" font-size="14" textLength="44">: int64</text><text x="18" y="710.919" fill="#D9B8FF" font-family="sans-serif" font-size="14" font-weight="bold" textLength="96">volume_size</text><text x="114" y="710.919" fill="#D9B8FF" font-family="sans-serif" font-size="14" textLength="44">: int64</text><rect width="227" height="39.789" x="164.5" y="844.22" fill="#3D176E" rx="2.5" ry="2.5" style="stroke:#000d19;stroke-width:.5"/><circle cx="179.5" cy="864.115" r="11" fill="#ADD1B2" style="stroke:#181818;stroke-width:1"/><path d="M182.469 869.755q-.578.297-1.219.438-.64.156-1.344.156-2.5 0-3.828-1.64-1.312-1.657-1.312-4.782t1.312-4.781q1.328-1.656 3.828-1.656.703 0 1.344.156.656.156 1.219.453v2.719q-.625-.578-1.219-.844-.594-.281-1.219-.281-1.344 0-2.031 1.078-.687 1.062-.687 3.156t.687 3.172q.688 1.062 2.031 1.062.625 0 1.219-.265.594-.281 1.219-.86z"/><text x="198.5" y="870" fill="#D9B8FF" font-family="Helvetica" font-size="17" textLength="185">digitalocean_database</text><rect width="223" height="74.086" x="306.5" y="543.95" fill="#3D176E" rx="2.5" ry="2.5" style="stroke:#000d19;stroke-width:.5"/><circle cx="321.5" cy="563.845" r="11" fill="#ADD1B2" style="stroke:#181818;stroke-width:1"/><path d="M324.469 569.485q-.578.297-1.219.438-.64.156-1.344.156-2.5 0-3.828-1.64-1.312-1.657-1.312-4.782t1.312-4.781q1.328-1.656 3.828-1.656.703 0 1.344.156.656.156 1.219.453v2.719q-.625-.578-1.219-.844-.594-.281-1.219-.281-1.344 0-2.031 1.078-.687 1.062-.687 3.156t.687 3.172q.688 1.062 2.031 1.062.625 0 1.219-.265.594-.281 1.219-.86z"/><text x="340.5" y="569.73" fill="#D9B8FF" font-family="Helvetica" font-size="17" textLength="181">digitalocean_resource</text><path d="M307.5 583.739h221" style="stroke:#000d19;stroke-width:.5"/><text x="317.5" y="605.734" fill="#D9B8FF" font-family="sans-serif" font-size="14" font-weight="bold" textLength="27">urn</text><text x="344.5" y="605.734" fill="#D9B8FF" font-family="sans-serif" font-size="14" textLength="48">: string</text><rect width="227" height="310.758" x="164.5" y="7" fill="#3D176E" rx="2.5" ry="2.5" style="stroke:#000d19;stroke-width:.5"/><circle cx="233.25" cy="26.895" r="11" fill="#ADD1B2" style="stroke:#181818;stroke-width:1"/><path d="M236.219 32.535q-.578.297-1.219.438-.64.156-1.344.156-2.5 0-3.828-1.64-1.312-1.657-1.312-4.782t1.312-4.781q1.328-1.656 3.828-1.656.703 0 1.344.156.656.156 1.219.453v2.719q-.625-.578-1.219-.844-.594-.281-1.219-.281-1.344 0-2.031 1.078-.687 1.062-.687 3.156t.687 3.172q.688 1.062 2.031 1.062.625 0 1.219-.265.594-.281 1.219-.86z"/><text x="258.75" y="32.78" fill="#D9B8FF" font-family="Helvetica" font-size="17" textLength="71">resource</text><path d="M165.5 46.789h225" style="stroke:#000d19;stroke-width:.5"/><text x="175.5" y="68.784" fill="#D9B8FF" font-family="sans-serif" font-size="14" font-weight="bold" textLength="29">age</text><text x="204.5" y="68.784" fill="#D9B8FF" font-family="sans-serif" font-size="14" textLength="66">: duration</text><text x="175.5" y="95.081" fill="#D9B8FF" font-family="sans-serif" font-size="14" font-weight="bold" textLength="43">atime</text><text x="218.5" y="95.081" fill="#D9B8FF" font-family="sans-serif" font-size="14" textLength="70">: datetime</text><text x="175.5" y="121.378" fill="#D9B8FF" font-family="sans-serif" font-size="14" font-weight="bold" textLength="43">ctime</text><text x="218.5" y="121.378" fill="#D9B8FF" font-family="sans-serif" font-size="14" textLength="70">: datetime</text><text x="175.5" y="147.675" fill="#D9B8FF" font-family="sans-serif" font-size="14" font-weight="bold" textLength="14">id</text><text x="189.5" y="147.675" fill="#D9B8FF" font-family="sans-serif" font-size="14" textLength="48">: string</text><text x="175.5" y="173.972" fill="#D9B8FF" font-family="sans-serif" font-size="14" font-weight="bold" textLength="33">kind</text><text x="208.5" y="173.972" fill="#D9B8FF" font-family="sans-serif" font-size="14" textLength="48">: string</text><text x="175.5" y="200.269" fill="#D9B8FF" font-family="sans-serif" font-size="14" font-weight="bold" textLength="90">last_access</text><text x="265.5" y="200.269" fill="#D9B8FF" font-family="sans-serif" font-size="14" textLength="66">: duration</text><text x="175.5" y="226.565" fill="#D9B8FF" font-family="sans-serif" font-size="14" font-weight="bold" textLength="90">last_update</text><text x="265.5" y="226.565" fill="#D9B8FF" font-family="sans-serif" font-size="14" textLength="66">: duration</text><text x="175.5" y="252.862" fill="#D9B8FF" font-family="sans-serif" font-size="14" font-weight="bold" textLength="48">mtime</text><text x="223.5" y="252.862" fill="#D9B8FF" font-family="sans-serif" font-size="14" textLength="70">: datetime</text><text x="175.5" y="279.159" fill="#D9B8FF" font-family="sans-serif" font-size="14" font-weight="bold" textLength="43">name</text><text x="218.5" y="279.159" fill="#D9B8FF" font-family="sans-serif" font-size="14" textLength="48">: string</text><text x="175.5" y="305.456" fill="#D9B8FF" font-family="sans-serif" font-size="14" font-weight="bold" textLength="34">tags</text><text x="209.5" y="305.456" fill="#D9B8FF" font-family="sans-serif" font-size="14" textLength="171">: dictionary[string, string]</text><g fill="none"><path d="M220.643 335.285A421341 421341 0 0 0 186.28 438.3" style="stroke:#ffaf37;stroke-width:2"/><path d="m226.34 318.21-11.389 15.176 11.383 3.798z" style="stroke:#ffaf37;stroke-width:2"/></g><path fill="none" d="M216.887 739.516c23.52 47.58 39.013 78.894 51.633 104.414m-59.61-120.55 2.598 18.795 10.757-5.318z" style="stroke:#ffaf37;stroke-width:2"/><g fill="none"><path d="M391.816 634.563c-30.04 60.32-81.026 162.707-104.176 209.187" style="stroke:#ffaf37;stroke-width:2"/><path d="m399.84 618.45-13.395 13.438 10.742 5.35z" style="stroke:#ffaf37;stroke-width:2"/></g><g fill="none"><path d="M335.764 335.272c27.46 81.71 53.136 158.118 69.996 208.298" style="stroke:#ffaf37;stroke-width:2"/><path d="m330.03 318.21.047 18.974 11.375-3.823z" style="stroke:#ffaf37;stroke-width:2"/></g></svg>
